X:0
T:Hokum & Bunkum
M:C|
C:© Paul Gitlitz 2009
R:Rag
K:G
"G"dd2e  dBG2|BB2c BAG2|"Em"EE2F GFE2|"G"D4-D2GF|!
"C"E3F G2A2|"G"B2dB- B2AG| "A7"A2AB ^cABc|"D7"d4-d2(3ABc|!
"G"dd2e  dBG2|BB2c BAG2|GG2A GFE2|D4-D3D|!
"C"E2F2 G2A2|"G"B2dB- B2AG| "D7"dd2e dBA2|"G"G4-G2GF|!
"Em"E2F2 G2A2|B2dB- B2AG|"D"D2E2 F2G2|A2cA- A2GF|!
"Em"E2F2 G2A2|B2dB- B2AG|"A7"^c2=c2B2^c2|"D7"d4-d2(3ABc|!
"G"dd2e  dBG2|BB2c BAG2|GG2A GFE2|D4-D3D|!
"C"E2F2 G2A2|"G"B2dB- B2AG| "D7"dd2e dBA2|"G"G8|]
